X:39
T:Winterwende
O:Deutschland
B:
Z:
N:T-DA p 40
N:http://ingeb.org/Lieder/wenndiel.html
C:Worte von Hans Scheu / Weise von Hans Jentch
M:4/4
L:1/8
Q:1/4=150
K:D
D2 FG A2 D2 | BA Bc d2 A2 | B3 A G2 F2
w:Wenn die_ Stür= me | Le=_ ben _ wek= ken, hebt im Land ein
w:und das_ Lied soll | al=_ le_ schrek= ken, die der Win= ter
|1 E2 D2 E4 :|2 ED E2 D4 | F2 F2 B2 B2 | c2 F2 d2 B2 |
w:Sin= gen an, | hält_ im Bann: Fort mit al= len, die noch kla= gen,
c2 F2 d2 cB | A2 G2 F2 E2 | D2 FG A2 D2 |
w:die mit uns den_ Weg nicht wa= gen, fort mit_ je=dem
BA Bc d2 z2 | B3 A G2 F2 | ED E2 D4 ||
w:schwa=_ chen_ Knecht: nur wer Stürmt, hat Le=_ bens= recht.
W:
W:Neu will wieder alles werden, was in Winterstarre steht,
W:brau=send weht ein Wind auf Erden und mit ihm ein Blühen geht.
W:Fort mit allen...
W:
W:Wenn im Leuchten hellen Sonne Erde Früchte tragen will,
W:wenn das Leben hat begonnen, steht des Todes Sichel still.
W:Fort mit allen...

